X: 32
M:3/4
L:1/8
K:F
"Andante sostenuto"Ac|d2 d2 cA|f2 f2 e>d|c>d c>A G>A|F2 G2 A/2G/2F
|:AB|d2 d2 c>A|f2 f3 E/2F/2|g2 g3 f/2g/2|a2 ba ge|
d>e d>c d/2c/2A|f2 g/2f/2g a2|F>E F>f d/2c/2A|G4:||

